X:69
T:Miss Hamilton Reel. JGi.069
O:Tealby,Lincolnshire
M:C|
L:1/8
Q:1/4=140
S:Joshua Gibbons MS,1823,Tealby,Lincs.
R:reel
Z:VMP/R.Greig, 2009
K:D
f|d2 AG F>GA>B|d2 A>F E3d|d2AG F>GA>g|f/2g/2a ef d2:|
|:f>ed>e c>de>g|f>ed>f g3a|f>ed>e c>de>g|(f/g/a) fe d2:|

